X:1
T:58
L:1/8
M:2/4
K:C
V:1 treble nm="Piano" snm="Pno."
V:1
 G>G EG | CA, G,2 | E c2 A | G4 | A>A GF | ED/C/ D2 | E G2 E | D4 | E3 F | G2 G2 | c>c BA | G2 E2 | %12
 D2 (3EEF | G2 c2 | B>B AB | c4 |] %16

